icon-themes/breeze_svg/cmd/32/comparedocuments.svg

<svg viewBox="0 0 32 32" xmlns="http://www.w3.org/2000/svg"><path d="m10.5 4a2.5 2.5 0 0 0 -2.5 2.5 2.5 2.5 0 0 0 2 2.4453125v14.0546875a3 3 0 0 0 3 3v2l3-2.5-3-2.5v2a2 2 0 0 1 -2-2v-14.0507812a2.5 2.5 0 0 0 2-2.4492188 2.5 2.5 0 0 0 -2.5-2.5zm8.5 0-3 2.5 3 2.5v-2a2 2 0 0 1 2 2v14.050781a2.5 2.5 0 0 0 -2 2.449219 2.5 2.5 0 0 0 2.5 2.5 2.5 2.5 0 0 0 2.5-2.5 2.5 2.5 0 0 0 -2-2.445312v-14.054688a3 3 0 0 0 -3-3zm-8.5 1a1.5 1.5 0 0 1 1.5 1.5 1.5 1.5 0 0 1 -1.5 1.5 1.5 1.5 0 0 1 -1.5-1.5 1.5 1.5 0 0 1 1.5-1.5zm11 19a1.5 1.5 0 0 1 1.5 1.5 1.5 1.5 0 0 1 -1.5 1.5 1.5 1.5 0 0 1 -1.5-1.5 1.5 1.5 0 0 1 1.5-1.5z" fill="#4d4d4d"/></svg>

<svg xmlns="http://www.w3.org/2000/svg" viewBox="0 0 32 32">
 <path 
     style="fill:#4d4d4d" 
     d="M 10.5 4 A 2.5 2.5 0 0 0 8 6.5 A 2.5 2.5 0 0 0 10 8.9453125 L 10 23 A 3 3 0 0 0 13 26 L 13 28 L 16 25.5 L 13 23 L 13 25 A 2 2 0 0 1 11 23 L 11 8.9492188 A 2.5 2.5 0 0 0 13 6.5 A 2.5 2.5 0 0 0 10.5 4 z M 19 4 L 16 6.5 L 19 9 L 19 7 A 2 2 0 0 1 21 9 L 21 23.050781 A 2.5 2.5 0 0 0 19 25.5 A 2.5 2.5 0 0 0 21.5 28 A 2.5 2.5 0 0 0 24 25.5 A 2.5 2.5 0 0 0 22 23.054688 L 22 9 A 3 3 0 0 0 19 6 L 19 4 z M 10.5 5 A 1.5 1.5 0 0 1 12 6.5 A 1.5 1.5 0 0 1 10.5 8 A 1.5 1.5 0 0 1 9 6.5 A 1.5 1.5 0 0 1 10.5 5 z M 21.5 24 A 1.5 1.5 0 0 1 23 25.5 A 1.5 1.5 0 0 1 21.5 27 A 1.5 1.5 0 0 1 20 25.5 A 1.5 1.5 0 0 1 21.5 24 z "
     />
</svg>
